!!! OTL: Berkowitz502
!!! Chapter: 1
!!! Section: IV
!!! Page: 125
!!! Mode: 
!!! Encoder: DJB
**kern
*staff1
*I"Piano
=1-
*clefC4
*k[b-e-]
*B-:
*M4/4
4.B-\
8A\
6c\
6A\
6F/
=2
4.e-\
8f\
12c\L
12d\
12e-\J
8G\L
8B-\J
=3
4.F/
8En/
6G/
6F/
6d\
=4
4.c\
8c#\
12d\L
12e-\
12en\J
12g\L
12f\
12d\J
=5
6B-\
6A\
6c\
4.F/
8e-\
=6
6F#/
6A\
6c\
4.d\
8B-\
=7
!!linebreak:original
4.e-\
8c\
6g-\
6f\
6e-\
=8
2d\
6d-\
6c\
6dn\
=9
2.B-\
4r
==
*-
